src/svg/edit.svg

<svg version="1.2" baseProfile="tiny" xmlns="http://www.w3.org/2000/svg" width="24" height="24" viewBox="0 0 24 24"><path d="M21.561 5.318l-2.879-2.879c-.293-.293-.677-.439-1.061-.439-.385 0-.768.146-1.061.439l-3.56 3.561h-9c-.552 0-1 .447-1 1v13c0 .553.448 1 1 1h13c.552 0 1-.447 1-1v-9l3.561-3.561c.293-.293.439-.677.439-1.061s-.146-.767-.439-1.06zm-10.061 9.354l-2.172-2.172 6.293-6.293 2.172 2.172-6.293 6.293zm-2.561-1.339l1.756 1.728-1.695-.061-.061-1.667zm7.061 5.667h-11v-11h6l-3.18 3.18c-.293.293-.478.812-.629 1.289-.16.5-.191 1.056-.191 1.47v3.061h3.061c.414 0 1.108-.1 1.571-.29.464-.19.896-.347 1.188-.64l3.18-3.07v6zm2.5-11.328l-2.172-2.172 1.293-1.293 2.171 2.172-1.292 1.293z"/></svg>

<?xml version="1.0" encoding="iso-8859-1"?>
<!-- Generator: Adobe Illustrator 16.2.1, SVG Export Plug-In . SVG Version: 6.00 Build 0)  -->
<svg version="1.2" baseProfile="tiny" id="Layer_1" xmlns="http://www.w3.org/2000/svg" xmlns:xlink="http://www.w3.org/1999/xlink"
	 x="0px" y="0px" width="24px" height="24px" viewBox="0 0 24 24" xml:space="preserve">
<path d="M21.561,5.318l-2.879-2.879C18.389,2.146,18.005,2,17.621,2c-0.385,0-0.768,0.146-1.061,0.439L13,6H4C3.448,6,3,6.447,3,7
	v13c0,0.553,0.448,1,1,1h13c0.552,0,1-0.447,1-1v-9l3.561-3.561C21.854,7.146,22,6.762,22,6.378S21.854,5.611,21.561,5.318z
	 M11.5,14.672L9.328,12.5l6.293-6.293l2.172,2.172L11.5,14.672z M8.939,13.333l1.756,1.728L9,15L8.939,13.333z M16,19H5V8h6
	l-3.18,3.18c-0.293,0.293-0.478,0.812-0.629,1.289C7.031,12.969,7,13.525,7,13.939V17h3.061c0.414,0,1.108-0.1,1.571-0.29
	c0.464-0.19,0.896-0.347,1.188-0.64L16,13V19z M18.5,7.672L16.328,5.5l1.293-1.293l2.171,2.172L18.5,7.672z"/>
</svg>
